svg/eye.svg

<svg xmlns="http://www.w3.org/2000/svg" viewBox="0 0 64 34" enable-background="new 0 0 64 34"><style type="text/css">.st0{fill:#343434;}</style><title>eye</title><desc>Created with Sketch.</desc><path class="st0" d="M32 .3c-16 0-32 9.5-32 17.3s16 15.8 32 15.8 32-8 32-15.8-16-17.3-32-17.3zm1 9.4c0-1.1.9-1.9 2-1.9s2 .9 2 1.9c0 1.1-.9 1.9-2 1.9s-2-.8-2-1.9zm-1 0c0 .8.3 1.5.8 2-.3 0-.6-.1-.8-.1-2.8 0-5 2.2-5 4.9s2.2 4.9 5 4.9 5-2.2 5-4.9c0-1.6-.8-3-2-3.9 1.7 0 3-1.3 3-2.9 0-.2 0-.4-.1-.6 2.5 1.8 4.1 4.6 4.1 7.7 0 5.3-4.5 9.6-10 9.6s-10-4.3-10-9.6 4.5-9.6 10-9.6c.4 0 .9 0 1.3.1-.8.5-1.3 1.4-1.3 2.4zm-28 7.9c0-2 2.9-5.3 7.9-8.1 5.2-2.9 11.6-4.8 17.9-5.1-6.1 1-10.8 6.2-10.8 12.4 0 6.3 4.7 11.5 10.9 12.5-6.4-.3-13-1.9-18.2-4.5-5-2.5-7.7-5.4-7.7-7.2zm48.2 7.2c-5.2 2.5-11.7 4.2-18.2 4.5 6.2-1 10.9-6.2 10.9-12.5s-4.7-11.4-10.8-12.4c6.3.4 12.7 2.2 17.9 5.1 5.1 2.8 7.9 6.1 7.9 8.1.1 1.8-2.6 4.7-7.7 7.2z"/></svg>

<?xml version="1.0" encoding="utf-8"?>
<!-- Generator: Adobe Illustrator 21.0.0, SVG Export Plug-In . SVG Version: 6.00 Build 0)  -->
<svg version="1.1" id="Layer_1" xmlns="http://www.w3.org/2000/svg" xmlns:xlink="http://www.w3.org/1999/xlink" x="0px" y="0px"
	 viewBox="0 0 64 34" style="enable-background:new 0 0 64 34;" xml:space="preserve">
<style type="text/css">
	.st0{fill:#343434;}
</style>
<title>eye</title>
<desc>Created with Sketch.</desc>
<path class="st0" d="M32,0.3C16,0.3,0,9.8,0,17.6s16,15.8,32,15.8s32-8,32-15.8S48,0.3,32,0.3z M33,9.7c0-1.1,0.9-1.9,2-1.9
	s2,0.9,2,1.9c0,1.1-0.9,1.9-2,1.9S33,10.8,33,9.7z M32,9.7c0,0.8,0.3,1.5,0.8,2c-0.3,0-0.6-0.1-0.8-0.1c-2.8,0-5,2.2-5,4.9
	c0,2.7,2.2,4.9,5,4.9s5-2.2,5-4.9c0-1.6-0.8-3-2-3.9c0,0,0,0,0,0c1.7,0,3-1.3,3-2.9c0-0.2,0-0.4-0.1-0.6c2.5,1.8,4.1,4.6,4.1,7.7
	c0,5.3-4.5,9.6-10,9.6s-10-4.3-10-9.6c0-5.3,4.5-9.6,10-9.6c0.4,0,0.9,0,1.3,0.1C32.5,7.8,32,8.7,32,9.7z M4,17.6
	c0-2,2.9-5.3,7.9-8.1c5.2-2.9,11.6-4.8,17.9-5.1C23.7,5.4,19,10.6,19,16.8c0,6.3,4.7,11.5,10.9,12.5c-6.4-0.3-13-1.9-18.2-4.5
	C6.7,22.3,4,19.4,4,17.6z M52.2,24.8c-5.2,2.5-11.7,4.2-18.2,4.5c6.2-1,10.9-6.2,10.9-12.5c0-6.3-4.7-11.4-10.8-12.4
	c6.3,0.4,12.7,2.2,17.9,5.1c5.1,2.8,7.9,6.1,7.9,8.1C60,19.4,57.3,22.3,52.2,24.8z"/>
</svg>
